icons/arrow-break-top.svg

<svg width="24" height="24" viewBox="0 0 24 24" fill="none" xmlns="http://www.w3.org/2000/svg">
<path fill-rule="evenodd" clip-rule="evenodd" d="M12 19.7001C11.5858 19.7001 11.25 19.3643 11.25 18.9501L11.25 5.05007C11.25 4.63586 11.5858 4.30007 12 4.30007C12.4142 4.30007 12.75 4.63586 12.75 5.05007L12.75 18.9501C12.75 19.3643 12.4142 19.7001 12 19.7001Z" fill="black"/>
<path fill-rule="evenodd" clip-rule="evenodd" d="M18.2356 10.875C17.9457 11.1709 17.4708 11.1757 17.175 10.8858L12.1696 5.98045C12.1058 5.91662 12.0448 5.9001 12 5.9001C11.9551 5.9001 11.8941 5.91659 11.8303 5.98043L6.93028 10.8804C6.63739 11.1733 6.16252 11.1733 5.86962 10.8804C5.57673 10.5875 5.57673 10.1127 5.86962 9.81977L10.7696 4.91977C11.4615 4.22788 12.5343 4.22688 13.2272 4.91674L18.2249 9.81444C18.5207 10.1044 18.5255 10.5792 18.2356 10.875Z" fill="black"/>
<path fill-rule="evenodd" clip-rule="evenodd" d="M18.75 18.9501C18.75 19.3643 18.4142 19.7001 18 19.7001L6 19.7001C5.58579 19.7001 5.25 19.3643 5.25 18.9501C5.25 18.5359 5.58579 18.2001 6 18.2001L18 18.2001C18.4142 18.2001 18.75 18.5359 18.75 18.9501Z" fill="black"/>
</svg>

<svg xmlns="http://www.w3.org/2000/svg" fill="none" viewBox="0 0 24 24">
  <path fill="#000" fill-rule="evenodd" d="M12 19.7a.75.75 0 0 1-.75-.75V5.05a.75.75 0 0 1 1.5 0v13.9a.75.75 0 0 1-.75.75Z" clip-rule="evenodd"/>
  <path fill="#000" fill-rule="evenodd" d="M18.236 10.875a.75.75 0 0 1-1.061.01L12.17 5.98A.24.24 0 0 0 12 5.9a.24.24 0 0 0-.17.08l-4.9 4.9a.75.75 0 1 1-1.06-1.06l4.9-4.9a1.716 1.716 0 0 1 2.457-.003l4.998 4.897c.296.29.3.765.01 1.061Zm.514 8.075a.75.75 0 0 1-.75.75H6a.75.75 0 0 1 0-1.5h12a.75.75 0 0 1 .75.75Z" clip-rule="evenodd"/>
</svg>
